**kern	**silbe	**harmony	**phrase	**leadinstrument	**rhyme	**harte
*ICvox	*	*M4/4	*	*	*	*M4/4
*VRlead	*	*	*	*	*	*
*Hstimme	*	*	*	*	*	*
*g:	*	*g:	*g:	*g:	*	*g:
*M4/4	*	*	*	*	*	*
*clefF4	*	*	*	*	*	*
r;	.	1r;	.	r	.	N.C.
=1	=1	=1	=1	=1	=1	=1
1r	.	2Gm	newline	voice	.	G:min (G B- D)
.	.	2CMm	.	voice	.	C:7
=2	=2	=2	=2	=2	=2	=2
1r	.	2Gm	.	voice	.	G:min
.	.	2CMm	.	voice	.	C:7
=3	=3	=3	=3	=3	=3	=3
1r	.	2Gm	.	voice	.	G:min
.	.	2CMm	.	voice	.	C:7
=4	=4	=4	=4	=4	=4	=4
8r	.	2Gm	.	voice	.	G:min
8d	You	.	.	.	.	.
8c	got	.	.	.	.	.
8d	to	.	.	.	.	.
8c	change	2CMm	.	voice	.	C:7
8B-	your	.	.	.	.	.
8G	e-	.	.	.	.	.
8F	-vil	.	.	.	.	.
=5	=5	=5	=5	=5	=5	=5
*>Letter>A	*>Letter>A	*>Letter>A	*>Letter>A	*>Letter>A	*>Letter>A	*>Letter>A
*>Label>Verse	*>Label>Verse	*>Label>Verse	*>Label>Verse	*>Label>Verse	*>Label>Verse	*>Label>Verse
4G	ways	2Gm	.	voice	A	G:min
2r	.	.	.	.	.	.
.	.	2CMm	.	voice	.	C:7
8r	.	.	.	.	.	.
[8B-	ba-	.	.	.	A	.
=6	=6	=6	=6	=6	=6	=6
8B-]	_	2Gm	.	voice	.	G:min
8c	-by	.	.	.	.	.
4r	.	.	.	.	.	.
2r	.	2CMm	.	voice	.	C:7
=7	=7	=7	=7	=7	=7	=7
8r	.	2Gm	.	voice	.	G:min
8G	Be-	.	.	.	.	.
4d	-fore	.	.	.	.	.
4d	I	2CMm	.	voice	.	C:7
8c	start	.	.	.	.	.
8r	.	.	.	.	.	.
=8	=8	=8	=8	=8	=8	=8
8c	lo-	2Gm	.	voice	(B	G:min
4B-	-vin'	.	.	.	b)	.
4G	you	.	.	.	C	.
.	.	2CMm	.	voice	.	C:7
8d	You	.	.	.	.	.
8c	got	.	.	.	.	.
8B-	to	.	.	.	.	.
=9	=9	=9	=9	=9	=9	=9
8c	change	2Gm	.	voice	A	G:min
8B-	_	.	.	.	.	.
2r	.	.	.	.	.	.
.	.	2CMm	.	voice	.	C:7
8r	.	.	.	.	.	.
[8B-	ba-	.	.	.	A	.
=10	=10	=10	=10	=10	=10	=10
8B-]	_	2Gm	.	voice	.	G:min
8c	-by	.	.	.	.	.
4r	.	.	.	.	.	.
2r	.	2CMm	.	voice	.	C:7
=11	=11	=11	=11	=11	=11	=11
8r	.	2Gm	.	voice	.	G:min
8G	And	.	.	.	.	.
8d	ever-	.	.	.	.	.
8d	-y	.	.	.	.	.
8c	word	2CMm	.	voice	.	C:7
8d	_	.	.	.	.	.
8c	that	.	.	.	.	.
8B-	I	.	.	.	.	.
=12	=12	=12	=12	=12	=12	=12
8c	say	2Gm	.	voice	A	G:min
4B-	is	.	.	.	.	.
4G	true	.	.	.	C	.
.	.	2CMm	.	voice	.	C:7
8F	You	.	.	.	.	.
8G	got	.	.	.	.	.
8F	me	.	.	.	.	.
=13	=13	=13	=13	=13	=13	=13
8G	runn-	2Gm	.	voice	(B	G:min
8B-	-in'	.	.	.	b)	.
8r	.	.	.	.	.	.
8F	and	.	.	.	.	.
8G	hid-	2CMm	.	voice	.	C:7
8B-	-in	.	.	.	b	.
8r	.	.	.	.	.	.
[8c	all	.	.	.	.	.
=14	=14	=14	=14	=14	=14	=14
8c]	_	2Gm	.	voice	.	G:min
8B-	o-	.	.	.	.	.
8G	-ver	.	.	.	.	.
4B-	town	.	.	.	D	.
.	.	2CMm	.	voice	.	C:7
8F	You	.	.	.	.	.
8G	got	.	.	.	.	.
8F	me	.	.	.	.	.
=15	=15	=15	=15	=15	=15	=15
8G	sneak-	2Gm	.	voice	(E	G:min
8B-	-in'	.	.	.	b)	.
8r	.	.	.	.	.	.
16F	and	.	.	.	.	.
16F	a-	.	.	.	.	.
8G	-peep-	2CMm	.	voice	(E	C:7
8B-	-in'	.	.	.	b)	.
8r	.	.	.	.	.	.
8G	and	.	.	.	.	.
=16	=16	=16	=16	=16	=16	=16
8c	runn-	2Gm	.	voice	(B	G:min
8B-	-in'	.	.	.	b)	.
8G	you	.	.	.	.	.
4B-	down	.	.	.	D	.
.	.	2CMm	.	voice	.	C:7
8G	This	.	.	.	.	.
8B-	can't	.	.	.	.	.
8c	go	.	.	.	.	.
=17	=17	=17	=17	=17	=17	=17
1d	on	1DMm	newline	voice	.	D:7
=18	=18	=18	=18	=18	=18	=18
4r	.	1DMm	.	voice	.	D:7
4d-	Lord	.	.	.	.	.
8c	knows	.	.	.	.	.
8B-	you	.	.	.	C	.
8G	got	.	.	.	.	.
8F	to	.	.	.	C	.
=19	=19	=19	=19	=19	=19	=19
*>Label>>Interlude	*>Label>>Interlude	*>Label>>Interlude	*>Label>>Interlude	*>Label>>Interlude	*>Label>>Interlude	*>Label>>Interlude
8G	change	2Gm	newline	.	A	G:min
2r	.	.	.	.	.	.
.	.	2CMm	.	.	.	C:7
4r	.	.	.	.	.	.
[8B-	ba-	.	.	.	A	.
=20	=20	=20	=20	=20	=20	=20
8B-]	_	2Gm	.	.	.	G:min
8c	-by	.	.	.	.	.
4r	.	.	.	.	.	.
2r	.	2CMm	.	.	.	C:7
=21	=21	=21	=21	=21	=21	=21
2r	.	2Gm	.	.	.	G:min
4r	.	2CMm	.	.	.	C:7
8r	.	.	.	.	.	.
[8B-	ba-	.	.	.	A	.
=22	=22	=22	=22	=22	=22	=22
8B-]	_	2Gm	.	.	.	G:min
8c	-by	.	.	.	.	.
4r	.	.	.	.	.	.
8r	.	2CMm	.	.	.	C:7
8d-	When	.	.	.	.	.
8c	I	.	.	.	.	.
8B-	come	.	.	.	.	.
=23	=23	=23	=23	=23	=23	=23
*>Letter>A	*>Letter>A	*>Letter>A	*>Letter>A	*>Letter>A	*>Letter>A	*>Letter>A
*>Label>Verse	*>Label>Verse	*>Label>Verse	*>Label>Verse	*>Label>Verse	*>Label>Verse	*>Label>Verse
8c	home	2Gm	.	.	F	G:min
8B-	_	.	.	.	.	.
2r	.	.	.	.	.	.
.	.	2CMm	.	.	.	C:7
8r	.	.	.	.	.	.
[8B-	ba-	.	.	.	A	.
=24	=24	=24	=24	=24	=24	=24
8B-]	_	2Gm	.	.	.	G:min
8c	-by	.	.	.	.	.
4r	.	.	.	.	.	.
2r	.	2CMm	.	.	.	C:7
=25	=25	=25	=25	=25	=25	=25
8r	.	2Gm	.	.	.	G:min
8G	My	.	.	.	.	.
8d	house	.	.	.	D	.
8d	is	.	.	.	.	.
8c	dark	2CMm	.	.	.	C:7
8d	_	.	.	.	.	.
8c	and	.	.	.	.	.
8B-	my	.	.	.	.	.
=26	=26	=26	=26	=26	=26	=26
8c	pots	2Gm	.	.	.	G:min
4B-	are	.	.	.	.	.
8G	cold	.	.	.	F	.
8r	.	2CMm	.	.	.	C:7
8d	You	.	.	.	.	.
8c	hang	.	.	.	A	.
8B-	a-	.	.	.	.	.
=27	=27	=27	=27	=27	=27	=27
8c	-round	2Gm	.	.	D	G:min
8B-	_	.	.	.	.	.
2r	.	.	.	.	.	.
.	.	2CMm	.	.	.	C:7
8r	.	.	.	.	.	.
[8B-	ba-	.	.	.	A	.
=28	=28	=28	=28	=28	=28	=28
8B-]	_	2Gm	.	.	.	G:min
8c	-by	.	.	.	.	.
4r	.	.	.	.	.	.
2r	.	2CMm	.	.	.	C:7
=29	=29	=29	=29	=29	=29	=29
8r	.	2Gm	.	.	.	G:min
8G	With	.	.	.	.	.
8d	Jean	.	.	.	E	.
8d	and	.	.	.	.	.
8c	Joan	2CMm	.	.	F	C:7
8d	_	.	.	.	.	.
8c	and	.	.	.	.	.
8B-	a	.	.	.	.	.
=30	=30	=30	=30	=30	=30	=30
8c	who	2Gm	.	.	C	G:min
4B-	knows	.	.	.	F	.
4G	who	.	.	.	C	.
.	.	2CMm	.	.	.	C:7
8F	I'm	.	.	.	.	.
8G	gett-	.	.	.	.	.
8F	-ing	.	.	.	.	.
=31	=31	=31	=31	=31	=31	=31
8G	ti-	2Gm	.	.	.	G:min
8B-	-red	.	.	.	.	.
8r	.	.	.	.	.	.
8F	of	.	.	.	.	.
8G	wait-	2CMm	.	.	A	C:7
8B-	-ing	.	.	.	.	.
8r	.	.	.	.	.	.
8G	and	.	.	.	.	.
=32	=32	=32	=32	=32	=32	=32
8c	fool-	2Gm	.	.	C	G:min
8B-	-ing	.	.	.	.	.
8G	a-	.	.	.	.	.
4B-	-round	.	.	.	D	.
.	.	2CMm	.	.	.	C:7
8F	I'll	.	.	.	.	.
8G	find	.	.	.	.	.
8F	some-	.	.	.	.	.
=33	=33	=33	=33	=33	=33	=33
8G	-bod-	2Gm	.	.	.	G:min
8B-	-y	.	.	.	.	.
8r	.	.	.	.	.	.
8F	that	.	.	.	.	.
8G	won't	2CMm	.	.	.	C:7
8B-	make	.	.	.	A	.
8r	.	.	.	.	.	.
8G	me	.	.	.	.	.
=34	=34	=34	=34	=34	=34	=34
8c	feel	2Gm	.	.	.	G:min
8B-	like	.	.	.	.	.
8G	a	.	.	.	.	.
4B-	clown	.	.	.	D	.
.	.	2CMm	.	.	.	C:7
8G	This	.	.	.	.	.
8B-	can't	.	.	.	.	.
8c	go	.	.	.	.	.
=35	=35	=35	=35	=35	=35	=35
1d	on	1DMm	newline	voice	.	D:7
=36	=36	=36	=36	=36	=36	=36
4r	.	1DMm	.	voice	.	D:7
4d-	Lord	.	.	.	.	.
8c	knows	.	.	.	.	.
8B-	you	.	.	.	C	.
8G	got	.	.	.	.	.
8F	to	.	.	.	C	.
=37	=37	=37	=37	=37	=37	=37
*>Letter>A2	*>Letter>A2	*>Letter>A2	*>Letter>A2	*>Letter>A2	*>Letter>A2	*>Letter>A2
*>Label>Solo	*>Label>Solo	*>Label>Solo	*>Label>Solo	*>Label>Solo	*>Label>Solo	*>Label>Solo
8G	change	2Gm	newline	organ	A	G:min
8r	.	.	.	.	.	.
4r	.	.	.	.	.	.
2r	.	2CMm	.	organ	.	C:7
=38	=38	=38	=38	=38	=38	=38
1r	.	2Gm	.	organ	.	G:min
.	.	2CMm	.	organ	.	C:7
=39	=39	=39	=39	=39	=39	=39
1r	.	2Gm	.	organ	.	G:min
.	.	2CMm	.	organ	.	C:7
=40	=40	=40	=40	=40	=40	=40
1r	.	2Gm	.	organ	.	G:min
.	.	2CMm	.	organ	.	C:7
=41	=41	=41	=41	=41	=41	=41
1r	.	2Gm	.	organ	.	G:min
.	.	2CMm	.	organ	.	C:7
=42	=42	=42	=42	=42	=42	=42
1r	.	2Gm	.	organ	.	G:min
.	.	2CMm	.	organ	.	C:7
=43	=43	=43	=43	=43	=43	=43
1r	.	2Gm	.	organ	.	G:min
.	.	2CMm	.	organ	.	C:7
=44	=44	=44	=44	=44	=44	=44
1r	.	2Gm	.	organ	.	G:min
.	.	2CMm	.	organ	.	C:7
=45	=45	=45	=45	=45	=45	=45
1r	.	2Gm	.	organ	.	G:min
.	.	2CMm	.	organ	.	C:7
=46	=46	=46	=46	=46	=46	=46
1r	.	2Gm	.	organ	.	G:min
.	.	2CMm	.	organ	.	C:7
=47	=47	=47	=47	=47	=47	=47
1r	.	2Gm	.	organ	.	G:min
.	.	2CMm	.	organ	.	C:7
=48	=48	=48	=48	=48	=48	=48
1r	.	2Gm	.	organ	.	G:min
.	.	2CMm	.	organ	.	C:7
=49	=49	=49	=49	=49	=49	=49
1r	.	2Gm	newline	organ	.	G:min
.	.	2CMm	.	organ	.	C:7
=50	=50	=50	=50	=50	=50	=50
1r	.	2Gm	.	organ	.	G:min
.	.	2CMm	.	organ	.	C:7
=51	=51	=51	=51	=51	=51	=51
1r	.	2Gm	.	organ	.	G:min
.	.	2CMm	.	organ	.	C:7
=52	=52	=52	=52	=52	=52	=52
1r	.	2Gm	.	organ	.	G:min
.	.	2CMm	.	organ	.	C:7
=53	=53	=53	=53	=53	=53	=53
1r	.	2Gm	.	organ	.	G:min
.	.	2CMm	.	organ	.	C:7
=54	=54	=54	=54	=54	=54	=54
1r	.	2Gm	.	organ	.	G:min
.	.	2CMm	.	organ	.	C:7
=55	=55	=55	=55	=55	=55	=55
1r	.	2Gm	newline	organ	.	G:min
.	.	2CMm	.	organ	.	C:7
=56	=56	=56	=56	=56	=56	=56
1r	.	1CMm	.	organ	.	C:7
=57	=57	=57	=57	=57	=57	=57
1r	.	2Gm	.	organ	.	G:min
.	.	2CMm	.	organ	.	C:7
=58	=58	=58	=58	=58	=58	=58
2r	.	1CMm	.	organ	.	C:7
8r	.	.	.	.	.	.
8d	When	.	.	.	.	.
8c	I	.	.	.	.	.
8B-	come	.	.	.	.	.
=59	=59	=59	=59	=59	=59	=59
*>Letter>A	*>Letter>A	*>Letter>A	*>Letter>A	*>Letter>A	*>Letter>A	*>Letter>A
*>Label>Verse	*>Label>Verse	*>Label>Verse	*>Label>Verse	*>Label>Verse	*>Label>Verse	*>Label>Verse
8c	home	2Gm	newline	voice	F	G:min
8B-	_	.	.	.	.	.
2r	.	.	.	.	.	.
.	.	2CMm	.	voice	.	C:7
8r	.	.	.	.	.	.
[8B-	ba-	.	.	.	A	.
=60	=60	=60	=60	=60	=60	=60
8B-]	_	2Gm	.	voice	.	G:min
8c	-by	.	.	.	.	.
4r	.	.	.	.	.	.
2r	.	2CMm	.	voice	.	C:7
=61	=61	=61	=61	=61	=61	=61
8r	.	2Gm	.	voice	.	G:min
8G	My	.	.	.	.	.
8d	house	.	.	.	D	.
8d	is	.	.	.	.	.
8c	dark	2CMm	.	voice	.	C:7
8d	_	.	.	.	.	.
8c	and	.	.	.	.	.
8B-	my	.	.	.	.	.
=62	=62	=62	=62	=62	=62	=62
8c	pots	2Gm	.	voice	.	G:min
4B-	are	.	.	.	.	.
4G	cold	.	.	.	F	.
.	.	2CMm	.	voice	.	C:7
8d	You	.	.	.	.	.
8c	hang	.	.	.	A	.
8B-	a-	.	.	.	.	.
=63	=63	=63	=63	=63	=63	=63
8c	-round	2Gm	.	voice	D	G:min
8B-	_	.	.	.	.	.
2r	.	.	.	.	.	.
.	.	2CMm	.	voice	.	C:7
8r	.	.	.	.	.	.
[8B-	ba-	.	.	.	A	.
=64	=64	=64	=64	=64	=64	=64
8B-]	_	2Gm	.	voice	.	G:min
8c	-by	.	.	.	.	.
4r	.	.	.	.	.	.
2r	.	2CMm	.	voice	.	C:7
=65	=65	=65	=65	=65	=65	=65
8r	.	2Gm	.	voice	.	G:min
8G	With	.	.	.	.	.
8d	Jean	.	.	.	E	.
8d	and	.	.	.	.	.
8c	Joan	2CMm	.	voice	F	C:7
8d	_	.	.	.	.	.
8c	and	.	.	.	.	.
8B-	a	.	.	.	.	.
=66	=66	=66	=66	=66	=66	=66
8c	who	2Gm	.	voice	C	G:min
4B-	knows	.	.	.	.	.
4G	who	.	.	.	C	.
.	.	2CMm	.	voice	.	C:7
8F	I'm	.	.	.	.	.
8G	gett-	.	.	.	.	.
8F	-ing	.	.	.	.	.
=67	=67	=67	=67	=67	=67	=67
8G	ti-	2Gm	.	voice	.	G:min
8B-	-red	.	.	.	.	.
8r	.	.	.	.	.	.
8F	of	.	.	.	.	.
8G	wait-	2CMm	.	voice	A	C:7
8B-	-ing	.	.	.	.	.
8r	.	.	.	.	.	.
8G	and	.	.	.	.	.
=68	=68	=68	=68	=68	=68	=68
8c	fool-	2Gm	.	voice	C	G:min
8B-	-ing	.	.	.	.	.
8G	a-	.	.	.	.	.
4B-	-round	.	.	.	D	.
.	.	2CMm	.	voice	.	C:7
8F	I'll	.	.	.	.	.
8G	find	.	.	.	.	.
8F	some-	.	.	.	.	.
=69	=69	=69	=69	=69	=69	=69
8G	-bod-	2Gm	.	voice	.	G:min
8B-	-y	.	.	.	.	.
8r	.	.	.	.	.	.
8F	that	.	.	.	.	.
8G	won't	2CMm	.	voice	.	C:7
8B-	make	.	.	.	A	.
8r	.	.	.	.	.	.
8G	me	.	.	.	.	.
=70	=70	=70	=70	=70	=70	=70
8c	feel	2Gm	.	voice	.	G:min
8B-	like	.	.	.	.	.
8G	a	.	.	.	.	.
4B-	clown	.	.	.	D	.
.	.	2CMm	.	voice	.	C:7
8G	This	.	.	.	.	.
8B-	can't	.	.	.	.	.
8c	go	.	.	.	.	.
=71	=71	=71	=71	=71	=71	=71
[1d	on	1DMm	newline	voice	.	D:7
=72	=72	=72	=72	=72	=72	=72
4d]	_	1DMm	.	voice	.	D:7
4d	Yea	.	.	.	.	.
4f	yea	.	.	.	.	.
[4g	yea	.	.	.	.	.
=73	=73	=73	=73	=73	=73	=73
*>Letter>A3	*>Letter>A3	*>Letter>A3	*>Letter>A3	*>Letter>A3	*>Letter>A3	*>Letter>A3
*>Label>Solo	*>Label>Solo	*>Label>Solo	*>Label>Solo	*>Label>Solo	*>Label>Solo	*>Label>Solo
1g_	_	2Gm	newline	guitar	.	G:min
.	.	2CMm	.	guitar	.	C:7
=74	=74	=74	=74	=74	=74	=74
1g]	_	2Gm	.	guitar	.	G:min
.	.	2CMm	.	guitar	.	C:7
=75	=75	=75	=75	=75	=75	=75
1r	.	2Gm	.	guitar	.	G:min
.	.	2CMm	.	guitar	.	C:7
=76	=76	=76	=76	=76	=76	=76
1r	.	2Gm	.	guitar	.	G:min
.	.	2CMm	.	guitar	.	C:7
=77	=77	=77	=77	=77	=77	=77
1r	.	2Gm	.	guitar	.	G:min
.	.	2CMm	.	guitar	.	C:7
=78	=78	=78	=78	=78	=78	=78
1r	.	2Gm	.	guitar	.	G:min
.	.	2CMm	.	guitar	.	C:7
=79	=79	=79	=79	=79	=79	=79
1r	.	2Gm	.	guitar	.	G:min
.	.	2CMm	.	guitar	.	C:7
=80	=80	=80	=80	=80	=80	=80
1r	.	2Gm	.	guitar	.	G:min
.	.	2CMm	.	guitar	.	C:7
=81	=81	=81	=81	=81	=81	=81
1r	.	2Gm	.	guitar	.	G:min
.	.	2CMm	.	guitar	.	C:7
=82	=82	=82	=82	=82	=82	=82
1r	.	2Gm	.	guitar	.	G:min
.	.	2CMm	.	guitar	.	C:7
=83	=83	=83	=83	=83	=83	=83
1r	.	2Gm	.	guitar	.	G:min
.	.	2CMm	.	guitar	.	C:7
=84	=84	=84	=84	=84	=84	=84
1r	.	2Gm	.	guitar	.	G:min
.	.	2CMm	.	guitar	.	C:7
=85	=85	=85	=85	=85	=85	=85
1r	.	2Gm	.	guitar	.	G:min
.	.	2CMm	.	guitar	.	C:7
=86	=86	=86	=86	=86	=86	=86
1r	.	2Gm	.	guitar	.	G:min
.	.	2CMm	.	guitar	.	C:7
r;	.	1r;	.	r	.	N.C.
r;	.	1r;	.	r	.	N.C.
*-	*-	*-	*-	*-	*-	*-
!!!BillboardChartDate: 1970/04/04
!!!BillboardPeak: 9
!!!BillboardWeeksOnChart: 13
!!!COC: Santana
!!!EMD: Harmonic and melodic transcriptions were of the longer, album version. I've trimmed them down to the right length (for the single version), but had to remove timestamps. -Nat
!!!ENC: Nathaniel Condit-Schultz
!!!EST: Awating manual error checking and editing.
!!!OTL: Evil Ways
!!!RDF**chordsym: original McGill chord annotation + (implied pitch class set, with bass pitch in first position)
!!!RDF**harmony: **recip + pitch class of root + harmonic quality
!!!RDF**leadinstrument: original McGill primary instrumentation annotation
!!!RDF**phrase: newline = linebreak in original McGill transcription
!!!RDF**timestamp: McGill audio timestamp in seconds
!!!RDT: 2017/01/12/
!!!SampleActualRank: 18
!!!SampleID#: 0364
!!!SampleTargetRank: 18
